images/icons/payments-calendar.svg

<svg xmlns="http://www.w3.org/2000/svg" width="26" height="21" viewBox="0 0 26 21"><defs><style>.a,.b{fill:none;stroke:#f0f0f0;stroke-linecap:round;stroke-linejoin:round;stroke-width:2px}.b{fill-rule:evenodd}</style></defs><title>payments-calendar</title><path class="a" d="M16 4H9"/><path class="b" d="M20 4h3a2 2 0 0 1 2 2v12a2 2 0 0 1-2 2H3a2 2 0 0 1-2-2V6a2 2 0 0 1 2-2h2m4 0V2a1 1 0 0 0-1-1H6a1 1 0 0 0-1 1v2m15 0V2a1 1 0 0 0-1-1h-2a1 1 0 0 0-1 1v2"/><path class="a" d="M7 12h12m-9-3v6m6-6v6"/></svg>

<svg xmlns="http://www.w3.org/2000/svg" width="26" height="21" viewBox="0 0 26 21"><defs><style>.a,.b{fill:none;stroke:#f0f0f0;stroke-linecap:round;stroke-linejoin:round;stroke-width:2px;}.b{fill-rule:evenodd;}</style></defs><title>payments-calendar</title><line class="a" x1="16" y1="4" x2="9" y2="4"/><path class="b" d="M20,4h3a2,2,0,0,1,2,2V18a2,2,0,0,1-2,2H3a2,2,0,0,1-2-2V6A2,2,0,0,1,3,4H5"/><path class="b" d="M9,4V2A1,1,0,0,0,8,1H6A1,1,0,0,0,5,2V4"/><path class="b" d="M20,4V2a1,1,0,0,0-1-1H17a1,1,0,0,0-1,1V4"/><line class="a" x1="7" y1="12" x2="19" y2="12"/><line class="a" x1="10" y1="9" x2="10" y2="15"/><line class="a" x1="16" y1="9" x2="16" y2="15"/></svg>
